X:467
T:Dunphy's
R:Hornpipe
O:Ireland
B:Ceol Rince 2 n301
B:O'Neill's 1560
B:Roche 3 n167
S:My arrangement from various sources- mainly O'Neill's
Z:Transcription, arrangement, chords:Mike Long
M:4/4
L:1/8
K:G
(3(DEF)|\
"G"GDBD G2 (3(gag)|"Am"feed ecAG|"D"(3(FAF) DG FGAc|"G"(3(BAG) AF "D"GFED|\
"G"GDBD G2 (3(gag)|
"Am"feed ecAG|"D"FAdB cADF|"G"AG{A}GF G2:|\
|:Bc|\
"G"dcBd gdBd|(3(gfg) af gdBd|(3(gag) fg edBd|
"Am"(3(efe) d^c "D"d2(3(def)|"G"(3(gag) dc (3(BdB) Gc|\
"C"ecAG "D"(3(FAF) DF|"G"GBdB "D"cADF|"G"AG{A}GF G2:|
